X: 28711
T: My Darling Asleep
R: jig
M: 6/8
K: Dmajor
|:~f3 edc|dcB BAG|FAA def|gfg eag|
~f3 edc|dcB BAG|FAA def|gec ~d3:|
|:def B2g|fed cBA|def B2g|fed ~e3|
def B2g|fed cBA|~A3 cAA|edc ~d3:|

